priv/static/svgs/icons_new/sport-skateboarding.svg

<svg width="32" height="32" viewBox="0 0 32 32" fill="none" xmlns="http://www.w3.org/2000/svg">
<path d="M19.2537 6.14353L20.1444 5.25285C21.8149 3.58238 24.5477 3.58238 26.2146 5.25285L26.744 5.78225C28.4145 7.45272 28.4145 10.182 26.744 11.8524L25.8533 12.7431M10.0358 15.3651L15.3655 10.0317M12.7972 25.7992L11.8493 26.7472C10.1789 28.4176 7.44959 28.4176 5.77912 26.7472L5.24972 26.2178C3.58283 24.5473 3.58283 21.8144 5.2533 20.144L6.20121 19.1961M21.9651 16.6313L16.6354 21.9647M17.7514 9.57389L22.448 14.2705M8.56204 18.7632L13.2587 23.4599M14.5823 9.19615L17.3777 6.40173L19.0847 8.10932L16.2893 10.9037L14.5823 9.19615ZM21.0911 15.7044L23.886 12.9095L25.5933 14.6168L22.7984 17.4117L21.0911 15.7044ZM18.6886 13.7053C18.5777 13.8127 18.4024 13.8127 18.2951 13.7053C18.1878 13.598 18.1842 13.4192 18.2951 13.3119C18.4024 13.201 18.5813 13.2046 18.6886 13.3119C18.7959 13.4192 18.7959 13.598 18.6886 13.7053ZM5.39322 18.3885L8.18863 15.594L9.89563 17.3016L7.10023 20.0961L5.39322 18.3885ZM11.9056 24.8968L14.7001 22.1014L16.4077 23.8084L13.6132 26.6038L11.9056 24.8968ZM12.7507 19.6396C12.6434 19.7469 12.4646 19.7505 12.3573 19.6396C12.2499 19.5323 12.2499 19.3535 12.3573 19.2461C12.4681 19.1353 12.6434 19.1388 12.7507 19.2461C12.858 19.3535 12.858 19.5323 12.7507 19.6396Z" stroke="black" stroke-miterlimit="10"/>
</svg>

<svg width="32" height="32" viewBox="0 0 32 32" fill="none" xmlns="http://www.w3.org/2000/svg">
  <symbol id="item" viewBox="0 0 32 32" stroke-width="1" fill="none">
    <path d="m19.254 6.144.89-.891c1.67-1.67 4.404-1.67 6.07 0l.53.53a4.303 4.303 0 0 1 0 6.07l-.89.89m-15.818 2.622 5.33-5.333m-2.569 15.767-.948.948a4.303 4.303 0 0 1-6.07 0l-.53-.53a4.31 4.31 0 0 1 .004-6.073l.948-.948m15.764-2.565-5.33 5.334m1.116-12.391 4.697 4.697M8.562 18.762l4.697 4.697m1.323-14.264 2.796-2.794 1.707 1.707-2.796 2.795-1.707-1.708Zm6.51 6.508 2.794-2.795 1.707 1.708-2.795 2.795-1.707-1.708Zm-2.403-1.999a.28.28 0 0 1-.394 0 .277.277 0 0 1 0-.393.277.277 0 0 1 .394 0 .28.28 0 0 1 0 .393ZM5.393 18.39l2.796-2.795 1.707 1.708L7.1 20.096 5.393 18.39Zm6.513 6.508L14.7 22.1l1.708 1.707-2.795 2.796-1.707-1.707Zm.845-5.257a.277.277 0 0 1-.394 0 .28.28 0 0 1 0-.394.277.277 0 0 1 .394 0 .28.28 0 0 1 0 .394Z" stroke="currentColor" stroke-miterlimit="10"/>
  </symbol>
</svg>
